X:1
T:Cheshire Round - Preston's 24 for 1801
Z:John Adams - Village Music Project - tradtunes 2005-2-15
M:6/4
L:1/8
K:D
   f2 ef gfed fgb2 | b2 e4 d2 c2 BA | f2 ef gfed fga2 | A2d4 A2 F2ED :|
|: B2 AB cBAG FGAF | E2 e4 d2 c2 BA | B2 AB cBAG FGAF | D2d4 A2F2 ED :|
